icons/evolvere-flat-vivid-sunken-dark-fallback/places/64/folder-bookmark.svg

<?xml version="1.0" encoding="UTF-8" standalone="no"?>
<!-- Created with Inkscape (http://www.inkscape.org/) -->

<svg
   xmlns:dc="http://purl.org/dc/elements/1.1/"
   xmlns:cc="http://creativecommons.org/ns#"
   xmlns:rdf="http://www.w3.org/1999/02/22-rdf-syntax-ns#"
   xmlns:svg="http://www.w3.org/2000/svg"
   xmlns="http://www.w3.org/2000/svg"
   xmlns:sodipodi="http://sodipodi.sourceforge.net/DTD/sodipodi-0.dtd"
   xmlns:inkscape="http://www.inkscape.org/namespaces/inkscape"
   id="svg13094"
   height="64"
   width="64"
   version="1.1"
   inkscape:version="0.48.4 r9939"
   sodipodi:docname="folder-bookmark.svg"
   inkscape:export-filename="folder.png"
   inkscape:export-xdpi="90"
   inkscape:export-ydpi="90">
  <sodipodi:namedview
     pagecolor="#ffffff"
     bordercolor="#666666"
     borderopacity="1"
     objecttolerance="10"
     gridtolerance="10"
     guidetolerance="10"
     inkscape:pageopacity="0"
     inkscape:pageshadow="2"
     inkscape:window-width="1920"
     inkscape:window-height="1022"
     id="namedview46"
     showgrid="false"
     inkscape:snap-bbox="true"
     inkscape:bbox-paths="true"
     inkscape:bbox-nodes="true"
     inkscape:snap-bbox-edge-midpoints="true"
     inkscape:snap-bbox-midpoints="true"
     inkscape:snap-nodes="true"
     inkscape:object-paths="true"
     inkscape:snap-intersection-paths="true"
     inkscape:object-nodes="true"
     inkscape:snap-smooth-nodes="true"
     inkscape:snap-midpoints="true"
     inkscape:snap-object-midpoints="true"
     inkscape:snap-center="true"
     fit-margin-top="0"
     fit-margin-left="0"
     fit-margin-right="0"
     fit-margin-bottom="0"
     inkscape:zoom="14.75"
     inkscape:cx="32.252131"
     inkscape:cy="25.961936"
     inkscape:window-x="-5"
     inkscape:window-y="23"
     inkscape:window-maximized="1"
     inkscape:current-layer="svg13094"
     showguides="true"
     inkscape:guide-bbox="true"
     inkscape:snap-page="true"
     inkscape:snap-global="true">
    <inkscape:grid
       type="xygrid"
       id="grid3023"
       empspacing="5"
       visible="true"
       enabled="true"
       snapvisiblegridlinesonly="true"
       originx="-80px"
       originy="-75px" />
  </sodipodi:namedview>
  <defs
     id="defs11" />
  <metadata
     id="metadata13099">
    <rdf:RDF>
      <cc:Work
         rdf:about="">
        <dc:format>image/svg+xml</dc:format>
        <dc:type
           rdf:resource="http://purl.org/dc/dcmitype/StillImage" />
        <dc:title />
      </cc:Work>
    </rdf:RDF>
  </metadata>
  <path
     style="color:#000000;fill:#da8c1f;fill-opacity:1;fill-rule:nonzero;stroke:none;marker:none;visibility:visible;display:inline;overflow:visible;enable-background:accumulate"
     d="m 3,6 -10e-8,58.000001 L 60,64 64,60 64,1 63,0 37,0 32,4.9999999 4,5 z"
     id="path3833-98"
     inkscape:connector-curvature="0"
     sodipodi:nodetypes="cccccccccc" />
  <path
     sodipodi:nodetypes="cccccccc"
     id="path3802-94"
     d="m 58,13 0,51 2,0 4,-4 0,-59 -1,-1 0,18 z"
     inkscape:connector-curvature="0"
     style="fill:#8c3d00;fill-opacity:0.33273704;stroke:none;stroke-width:1;marker:none" />
  <path
     sodipodi:nodetypes="ccccc"
     d="m 7,13 51,0 0,31 -51,0 z"
     id="path3920-52"
     inkscape:connector-curvature="0"
     style="fill:#e2e2e2;fill-opacity:1;fill-rule:nonzero" />
  <path
     style="color:#000000;fill:#3e4959;fill-opacity:0.22968199;fill-rule:nonzero;stroke-width:1;stroke-linecap:butt;stroke-linejoin:miter;stroke-miterlimit:4;stroke-opacity:1;stroke-dasharray:none;stroke-dashoffset:0;marker:none;visibility:visible;display:inline;overflow:visible;enable-background:accumulate"
     d="m 30,13 4,4 2,0 -4,-4 z"
     id="path3982-40"
     inkscape:connector-curvature="0"
     sodipodi:nodetypes="ccccc" />
  <path
     id="path3916-08"
     d="m 0,13 0,50 1,1 59,0 1,-1 0,-45 -1,-1 -26,1e-6 -5,-5 L 1,12 z"
     inkscape:connector-curvature="0"
     style="color:#000000;fill:#f4ae3f;fill-opacity:1;fill-rule:nonzero;stroke-width:1;stroke-linecap:butt;stroke-linejoin:miter;stroke-miterlimit:4;stroke-opacity:1;stroke-dasharray:none;stroke-dashoffset:0;marker:none;visibility:visible;display:inline;overflow:visible;enable-background:accumulate"
     sodipodi:nodetypes="ccccccccccc"
     inkscape:export-xdpi="90"
     inkscape:export-ydpi="90" />
  <path
     style="font-size:medium;font-style:normal;font-variant:normal;font-weight:normal;font-stretch:normal;text-indent:0;text-align:start;text-decoration:none;line-height:normal;letter-spacing:normal;word-spacing:normal;text-transform:none;direction:ltr;block-progression:tb;writing-mode:lr-tb;text-anchor:start;baseline-shift:baseline;color:#000000;fill:#b54f00;fill-opacity:0.38628157000000002;stroke:none;stroke-width:1;marker:none;visibility:visible;display:inline;overflow:visible;enable-background:accumulate;font-family:Sans;-inkscape-font-specification:Sans;fill-rule:nonzero"
     d="M 17.625,25.03125 14.40625,33.125 5.5625,33.8125 5,35.5625 l 6.6875,5.5625 -2.09375,8.65625 1.5,1.0625 7.375,-4.65625 7.5625,4.65625 1.5,-1.09375 -2.15625,-8.46875 4.28125,-3.625 -2.9375,-0.125 -3.125,2.65625 -0.3125,1 1.6875,6.65625 L 19,44.15625 l -1.0625,0 -5.8125,3.6875 L 13.8125,41 13.46875,40 8.1875,35.625 l 7,-0.53125 0.84375,-0.625 2.53125,-6.375 2.6875,6.46875 0.84375,0.625 6.875,0.4375 2.9375,0.15625 0.25,-0.21875 -0.59375,-1.78125 -8.71875,-0.5625 -3.375,-8.1875 -1.84375,0 z"
     id="path2988"
     inkscape:connector-curvature="0" />
</svg>

<svg xmlns="http://www.w3.org/2000/svg" viewBox="0 0 64 64"><path d="m3 6v58h57l4-4v-59l-1-1h-26l-5 5h-28z" fill="#da8c1f" color="#000"/><path d="m58 13v51h2l4-4v-59l-1-1v18z" fill="#8c3d00" fill-opacity=".333"/><path d="m7 13h51v31h-51z" fill="#e2e2e2"/><g color="#000"><path d="m30 13l4 4h2l-4-4z" fill="#3e4959" fill-opacity=".23"/><path d="m0 13v50l1 1h59l1-1v-45l-1-1h-26l-5-5h-28z" fill="#f4ae3f"/><path d="m17.625 25.03l-3.219 8.094-8.844.688-.563 1.75 6.688 5.563-2.094 8.656 1.5 1.063 7.375-4.656 7.563 4.656 1.5-1.094-2.156-8.469 4.281-3.625-2.938-.125-3.125 2.656-.313 1 1.688 6.656-5.969-3.688h-1.063l-5.813 3.688 1.688-6.844-.344-1-5.281-4.375 7-.531.844-.625 2.531-6.375 2.688 6.469.844.625 6.875.438 2.938.156.25-.219-.594-1.781-8.719-.563-3.375-8.188h-1.844" fill-opacity=".386" fill="#b54f00"/></g></svg>
